X:120
T:Langston's Quickstep
B:American Veteran Fifer #120
C:H.C. Langston Co.E.11th O.V.I.
M:6/8
L:1/8
Q:1/8=300
K:D t=8
((3D/E/F/) | GDG BGB | dBd g2g | f2e efe | A3 A((3EFG) |
AFA cAc | ece f2f | f2e efe | B3- B((3DEF) |
GDG BGB | dBd g2g | f2e efe | a3 a2f/g/ |
a>ba agf | gag gfe | fed c2e | d3 d2 :|
|: d/e/ | fgf a2e | f2a d2c/d/ | efe edc | d3- d2c/d/ |
efe ede | fgf fef | gag- gfg | a3- a2d/e/ |
fgf g2e | f2a d2c/d/ | e2e ede | a3- a2f/g/ |
a>ba agf | g>ag gfe | ged c2e | d3 d2 :|
